X:3985
T:O'Keefe's Polka
M:2/4
O:Ireland
R:Polka
Z:Richard Robinson 
%%TUNEURL: http://www.leeds.ac.uk/music/Info/RRTuneBk/gettune/000007c9.html
%%ID:000007c9
K:B min
Bc|\
d2B2 b2B2|d2e2 fafe|1 d2B2 b2B2|cBAc e2fe :|2\
d3e fed2|B6 ::
d2|\
f2af b2a2|f2e2 fafe|1 d2B2 b2B2|1 cBAc e2 :|2\
d3e fed2|B6 :|
